X: 4359
T: Bold Doherty
R: jig
M: 6/8
K: Eminor
EFG AGA|B2G GAB|cBA ~B3|AGE EDB,|
EFG AGF|G2G GAB|cBA ~B3|1 AGE EDB,:|2 AGE E2A||
Bee edB|dBA G2A|Bee edB|dBA AGA|
Bee edB|dBA GAB|~c3 B2A|AGE E2A|
Bee edB|dBA G2A|Bee edB|dBA Aef|
~g3 gfe|dBA GAB|cBA ~B3|AGE EDB,||

